frontend/public/Images/Brand/p4_redline.svg

<svg width="242" height="32" viewBox="0 0 242 32" fill="none" xmlns="http://www.w3.org/2000/svg">
<path d="M0 0.00110626C9.63023 7.01772 19.6014 11.7309 29.5895 15.9834L37.1062 18.9247L44.657 21.4408C49.6852 23.2835 54.7645 24.2757 59.8267 25.6224C80.1269 30.5482 100.563 32.2492 120.966 31.9657C131.159 31.3632 141.368 31.0443 151.544 29.2724C156.623 28.4219 161.72 27.9612 166.782 26.7564C171.844 25.6224 176.906 24.4175 181.969 23.1417L189.554 21.2281C192.076 20.4131 194.599 19.6689 197.104 18.7829L212.172 13.6091C222.177 9.60465 232.114 5.03322 242 0.00110626C231.807 1.13511 221.734 3.4031 211.626 4.99779L196.474 7.26578C193.951 7.62016 191.429 8.08084 188.923 8.54153L181.355 9.42746C176.31 9.95902 171.265 10.5615 166.237 11.2348C161.191 11.8372 156.146 12.0853 151.118 12.546C141.045 13.68 130.954 13.7508 120.881 14.3178C100.7 14.6013 80.553 13.9635 60.4063 11.8726C55.3781 11.3056 50.3329 10.7386 45.3047 9.92359L37.7539 8.82503L30.2031 7.37209C20.1127 5.56479 10.0563 3.19048 0 0.00110626Z" fill="#E50012"/>
</svg>

<svg width="242" height="32" fill="none" xmlns="http://www.w3.org/2000/svg"><path d="M0 .001c9.63 7.017 19.601 11.73 29.59 15.982l7.516 2.942 7.551 2.516c5.028 1.843 10.108 2.835 15.17 4.181 20.3 4.926 40.736 6.627 61.139 6.344 10.193-.603 20.402-.922 30.578-2.694 5.079-.85 10.176-1.31 15.238-2.516a589.917 589.917 0 0015.187-3.614l7.585-1.914c2.522-.815 5.045-1.56 7.55-2.445l15.068-5.174C222.177 9.605 232.114 5.033 242 .001c-10.193 1.134-20.266 3.402-30.374 4.997l-15.152 2.268c-2.523.354-5.045.815-7.551 1.276l-7.568.885a541.325 541.325 0 00-15.118 1.808c-5.046.602-10.091.85-15.119 1.311-10.073 1.134-20.164 1.205-30.237 1.772-20.181.283-40.328-.354-60.475-2.445-5.028-.567-10.073-1.134-15.101-1.95l-7.551-1.098-7.55-1.453C20.112 5.565 10.055 3.19 0 .002z" fill="#E50012"/></svg>
